X:5032
T:Away To Hell!
M:6/8
L:1/8
Q:180
C:Aidan Crossey
R:Jig
K:G
|:GFG A2B|cAF E2D|GFG A2B|cde d3|
gfg d2B|ABG F2D|GFG ABc|1 BGF GEF:||
2 BGF GBd|
dcB g2B|dcB g2B|dcB g2B|ddd c2B|
cBA f2f|cBA f2f|cBA f2f|efg agf|
gdB e2d|gdB e2d|gdB e2d|e2a a^ga|
bag a2f|gfe d3|def gdB|ABA G3||
